symbols/web/flip_camera_android/materialsymbolsrounded/flip_camera_android_wght500grad200_20px.svg

<svg xmlns="http://www.w3.org/2000/svg" height="20" width="20"><path d="M10 13q-1.25 0-2.146-.885-.896-.886-.896-2.157 0-1.25.896-2.145.896-.896 2.146-.896t2.146.896q.896.895.896 2.145 0 1.271-.896 2.157Q11.25 13 10 13ZM2.333 8.646q-.5 0-.854-.354t-.354-.854V4q0-.479.365-.844.364-.364.864-.364.479 0 .844.364.364.365.364.844v-.167q1.313-1.271 2.959-1.958 1.646-.687 3.458-.687 2.875 0 5.146 1.677t3.208 4.364q.209.563-.145.99-.355.427-1 .427-.417 0-.792-.271-.375-.271-.5-.708-.75-1.813-2.344-2.927-1.594-1.115-3.573-1.115-1.521 0-2.875.656-1.354.657-2.166 1.927h.833q.479 0 .854.365T7 7.417q0 .5-.375.864-.375.365-.854.365Zm7.646 10.166q-2.875 0-5.146-1.687T1.625 12.75q-.208-.562.146-.99.354-.427 1-.427.417 0 .791.261.376.26.5.698.75 1.812 2.344 2.937Q8 16.354 9.979 16.354q1.542 0 2.896-.646 1.354-.646 2.167-1.937h-.834q-.479 0-.854-.365-.375-.364-.375-.844 0-.5.375-.864.375-.365.854-.365h3.438q.5 0 .854.355.354.354.354.854v3.437q0 .479-.364.844-.365.365-.865.365-.479 0-.844-.365-.364-.365-.364-.844v.188q-1.313 1.25-2.969 1.948-1.656.697-3.469.697Z"/></svg>

<svg xmlns="http://www.w3.org/2000/svg" height="20" width="20"><path d="M10 13Q8.75 13 7.854 12.115Q6.958 11.229 6.958 9.958Q6.958 8.708 7.854 7.813Q8.75 6.917 10 6.917Q11.25 6.917 12.146 7.813Q13.042 8.708 13.042 9.958Q13.042 11.229 12.146 12.115Q11.25 13 10 13ZM2.333 8.646Q1.833 8.646 1.479 8.292Q1.125 7.938 1.125 7.438V4Q1.125 3.521 1.49 3.156Q1.854 2.792 2.354 2.792Q2.833 2.792 3.198 3.156Q3.562 3.521 3.562 4V3.833Q4.875 2.562 6.521 1.875Q8.167 1.188 9.979 1.188Q12.854 1.188 15.125 2.865Q17.396 4.542 18.333 7.229Q18.542 7.792 18.188 8.219Q17.833 8.646 17.188 8.646Q16.771 8.646 16.396 8.375Q16.021 8.104 15.896 7.667Q15.146 5.854 13.552 4.74Q11.958 3.625 9.979 3.625Q8.458 3.625 7.104 4.281Q5.75 4.938 4.938 6.208H5.771Q6.25 6.208 6.625 6.573Q7 6.938 7 7.417Q7 7.917 6.625 8.281Q6.25 8.646 5.771 8.646ZM9.979 18.812Q7.104 18.812 4.833 17.125Q2.562 15.438 1.625 12.75Q1.417 12.188 1.771 11.76Q2.125 11.333 2.771 11.333Q3.188 11.333 3.562 11.594Q3.938 11.854 4.062 12.292Q4.812 14.104 6.406 15.229Q8 16.354 9.979 16.354Q11.521 16.354 12.875 15.708Q14.229 15.062 15.042 13.771H14.208Q13.729 13.771 13.354 13.406Q12.979 13.042 12.979 12.562Q12.979 12.062 13.354 11.698Q13.729 11.333 14.208 11.333H17.646Q18.146 11.333 18.5 11.688Q18.854 12.042 18.854 12.542V15.979Q18.854 16.458 18.49 16.823Q18.125 17.188 17.625 17.188Q17.146 17.188 16.781 16.823Q16.417 16.458 16.417 15.979V16.167Q15.104 17.417 13.448 18.115Q11.792 18.812 9.979 18.812Z"/></svg>
